X:11063
T:Molly's Graduation
R:hornpipe
C:Dougie MacDonald
O:20th century Cape Breton
D:A Miner, Dougie MacDonald, 1998
N:Bookings,Mechanicals etc.
N:..... Dougie MacDonald <dougie@cranfordpub.com>
N:More tunes and information <http://www.cranfordpub.com/dougie>
Z:This abc transcription is for personal use only,
Z:provided this notice remains attached.
Z:Used by permission of the composers.
Z:Paul Stewart Cranford 
Q:300
L:1/8
M:C|
K:Eminor
c/c/c|B2 EA GAFG|EFGA BABd|e2 B/B/B egfe|d^cdA BAFA|!
B2 BA GAFG|EFGA BA B/^c/d|egfe dBAc|BAFG E2:|!
B/B/B|b2 B2 e4|({a}b)agf efe^c|d2 dB ABGA|FAEF DEFA|!
B2 BA GAFG|EFGA BA B/^c/d|egfe dBAc|BAFG E2:|!
